src/22/actions/final_activity.svg

<svg xmlns="http://www.w3.org/2000/svg" viewBox="0 0 22 22">
  <defs id="defs3051">
    <style type="text/css" id="current-color-scheme">
      .ColorScheme-Text {
        color:#5d656b;
      }
      </style>
  </defs>
 <path 
     style="fill:currentColor;fill-opacity:1;stroke:none" 
     d="M 11 3 C 6.5817254 3 3.0000047 6.5817206 3 11 C 3.0000047 15.418279 6.5817254 19 11 19 C 15.418275 19 18.999995 15.418279 19 11 C 18.999995 6.5817206 15.418275 3 11 3 z M 11 4 C 12.660191 4.0004288 14.266188 4.5909096 15.53125 5.6660156 L 15.53125 5.6679688 C 15.54371 5.6873648 15.54928 5.698596 15.5625 5.71875 L 11 10.28125 L 6.4375 5.71875 C 6.44567 5.705644 6.4489602 5.6985249 6.4570312 5.6855469 C 7.7223998 4.6007743 9.333303 4.0030918 11 4 z M 5.71875 6.4375 L 10.28125 11 L 5.71875 15.5625 C 5.6171467 15.440805 5.5512717 15.375451 5.4570312 15.265625 C 4.514313 14.043295 4.0020659 12.543633 4 11 C 4.0008918 9.3404807 4.5913443 7.735253 5.6660156 6.4707031 C 5.6871048 6.4567728 5.6971198 6.4519431 5.71875 6.4375 z M 16.28125 6.4375 C 16.29045 6.4413 16.295507 6.4415525 16.304688 6.4453125 C 17.395606 7.7123566 17.996983 9.3280269 18 11 C 17.99955 12.666377 17.404652 14.277936 16.322266 15.544922 C 16.307246 15.552622 16.29715 15.55392 16.28125 15.5625 L 11.71875 11 L 16.28125 6.4375 z M 11 11.71875 L 15.5625 16.28125 C 15.5577 16.2914 15.555501 16.296561 15.550781 16.306641 C 14.284482 17.395983 12.67038 17.996594 11 18 C 9.3269314 17.998459 7.7097453 17.397731 6.4414062 16.306641 C 6.4396762 16.296321 6.43926 16.29165 6.4375 16.28125 L 11 11.71875 z "
     class="ColorScheme-Text"
     />
</svg>

<svg xmlns="http://www.w3.org/2000/svg" viewBox="0 0 22 22"><path d="M11 3a8 8 0 1 0 0 16 8 8 0 0 0 0-16zm0 1a7 7 0 0 1 4.531 1.666v.002l.031.05L11 10.282 6.437 5.72l.02-.033A7 7 0 0 1 11 4zM5.719 6.438L10.28 11 5.72 15.563c-.102-.122-.168-.188-.262-.297A7 7 0 0 1 4 11a7 7 0 0 1 1.666-4.53l.053-.032zm10.562 0l.024.007A7 7 0 0 1 18 11a7 7 0 0 1-1.678 4.545c-.015.008-.025.009-.04.018L11.718 11l4.562-4.563zM11 11.718l4.563 4.563-.012.026A7 7 0 0 1 11 18a7 7 0 0 1-4.559-1.693l-.003-.026L11 11.72z" fill="currentColor" color="#5d656b"/></svg>
